dist/img/first-lesson/telegram.svg

<svg width="29" height="29" viewBox="0 0 29 29" fill="none" xmlns="http://www.w3.org/2000/svg">
<rect width="29" height="29" rx="14.5" fill="white" fill-opacity="0.23"/>
<path d="M13.228 16.0377L13.0326 18.7366C13.3122 18.7366 13.4333 18.6187 13.5785 18.4771L14.8896 17.247L17.6062 19.2002C18.1044 19.4728 18.4554 19.3292 18.5898 18.7502L20.373 10.547C20.531 9.82398 20.1071 9.54075 19.6217 9.71813L9.14032 13.6578C8.42499 13.9304 8.43582 14.3219 9.01872 14.4993L11.6984 15.3175L17.9227 11.4939C18.2157 11.3035 18.482 11.4088 18.2629 11.5993L13.228 16.0377Z" fill="white"/>
</svg>

<svg width="29" height="29" viewBox="0 0 29 29" fill="none" xmlns="http://www.w3.org/2000/svg"><rect width="29" height="29" rx="14.5" fill="#fff" fill-opacity=".23"/><path d="M13.228 16.038l-.195 2.699c.28 0 .4-.118.546-.26l1.31-1.23 2.717 1.953c.498.273.85.13.984-.45l1.783-8.203c.158-.723-.266-1.006-.751-.829L9.14 13.658c-.715.272-.704.664-.121.841l2.68.819 6.224-3.824c.293-.19.559-.085.34.105l-5.035 4.439z" fill="#fff"/></svg>
